X: 41523
T: Uncle Bernard's
R: polka
M: 2/4
K: Gmajor
GA Bc|d>e d/c/B|c>d c/B/A|B>c BA|
GA Bc|d>e dg|f/e/d/c/ BA|G2:|
gg fe|d>e d/c/B|c>d c/B/A|B>c Bd|
gg fe|d>e dg|f/e/d/c/ BA|G2:|
G2 A2 B2 c2|d3 e dc B2|c3 d cB A2|B3 c B2 A2|
G2 A2 B2 c2|d3 e d2 g2|fe dc B2 A2|G4:|
g2 g2 f2 e2|d3 e dc B2|c3 d cB A2|B3 c B2 d2|
g2 g2 f2 e2|d3 e d2 g2|fe dc B2 A2|G4:|

